img/partners/ros-bank.svg

<svg width="355" height="89" viewBox="0 0 355 89" fill="none" xmlns="http://www.w3.org/2000/svg">
<path d="M193.398 11.4521L160.809 15.6797V25.2562L193.398 22.3682V11.4521Z" fill="#9AACDE"/>
<path fill-rule="evenodd" clip-rule="evenodd" d="M187.227 33.3981L160.808 15.6895V25.2433L169.046 30.7843L170.666 31.7232C167.707 31.7586 166.289 32.3555 164.866 33.2092C160.798 35.6444 158.686 39.9273 158.686 46.2472C158.686 56.8964 164.606 61.9385 175.882 61.9385C187.159 61.9385 193.108 56.8964 193.108 46.2472C193.108 40.0838 191.095 35.8693 187.227 33.3981ZM175.882 54.1517C170.292 54.1517 168.532 52.1308 168.532 46.329C168.532 40.5271 170.279 38.5062 175.882 38.5062C181.486 38.5062 183.202 40.4877 183.202 46.329C183.202 52.1696 181.515 54.1517 175.882 54.1517ZM93.8238 46.329C93.8238 52.1407 95.57 54.1517 101.173 54.1517C106.777 54.1517 108.494 52.1308 108.494 46.329C108.494 40.5271 106.803 38.5062 101.173 38.5062C95.5432 38.5062 93.8238 40.4877 93.8238 46.329ZM83.9777 46.2443C83.9777 35.5952 89.9368 30.7223 101.173 30.7223C112.41 30.7223 118.395 35.5952 118.395 46.2443C118.395 56.8929 112.476 61.9356 101.173 61.9356C89.8709 61.9356 83.9777 56.8929 83.9777 46.2443ZM56.3046 35.2921C57.3768 33.9423 61.7015 30.6829 67.0221 30.6829C75.8778 30.6829 80.7613 35.4225 80.7613 46.1887C80.7613 56.9544 75.8714 61.7397 66.9923 61.7397C61.6416 61.7397 57.347 58.5389 56.2457 57.1601V71.3909H46.8633V31.3807H56.3046V35.2921ZM56.3114 46.1655C56.3114 51.9709 58.0707 53.9883 63.661 53.9883V53.9755C69.2907 53.9755 70.9779 51.9998 70.9779 46.1655C70.9779 40.3312 69.2644 38.3428 63.661 38.3428C58.0576 38.3428 56.3114 40.3602 56.3114 46.1655ZM257.668 31.3934V42.2576H245.211V31.3934H235.77V60.7945H245.211V49.7802H257.668V60.7945H267.113V31.3934H257.668ZM210.126 61.7397C201.24 61.7397 196.357 56.9445 196.357 46.1887C196.357 35.4514 201.237 30.6829 210.093 30.6829C215.41 30.6829 219.735 33.9423 220.814 35.2724V31.361H230.255V60.7974H220.869V57.1601C219.768 58.5389 215.473 61.7397 210.126 61.7397ZM213.457 38.3231C207.824 38.3231 206.137 40.3051 206.137 46.1458C206.133 51.9575 207.857 53.9691 213.457 53.9691C219.058 53.9691 220.803 51.9807 220.803 46.1458C220.803 40.3115 219.091 38.3231 213.457 38.3231ZM145.792 49.9303C145.055 53.0042 143.082 54.1511 138.807 54.1511C133.217 54.1511 131.46 52.1302 131.46 46.3284C131.46 40.5265 133.217 38.5057 138.807 38.5057C143.082 38.5057 145.055 39.6497 145.795 42.7433L155.641 42.0032C154.171 34.3109 148.406 30.7351 138.807 30.7351C127.57 30.7351 121.615 35.6079 121.615 46.2571C121.615 56.9057 127.534 61.9483 138.807 61.9483C148.399 61.9483 154.105 58.2978 155.611 50.6802L145.792 49.9303ZM292.132 45.3542L307.075 60.791H294.937L281.921 47.2545V47.965V50.5104V60.791H272.648V31.3934H281.921V44.1644L294.591 31.3934H306.273L292.132 45.3542Z" fill="#253256"/>
</svg>

<svg width="355" height="89" fill="none" xmlns="http://www.w3.org/2000/svg"><path d="M193.398 11.452l-32.589 4.228v9.576l32.589-2.888V11.452z" fill="#9AACDE"/><path fill-rule="evenodd" clip-rule="evenodd" d="M187.227 33.398L160.808 15.69v9.554l8.238 5.541 1.62.94c-2.959.035-4.377.631-5.8 1.485-4.068 2.435-6.18 6.718-6.18 13.038 0 10.65 5.92 15.691 17.196 15.691 11.277 0 17.226-5.042 17.226-15.69 0-6.164-2.013-10.379-5.881-12.85zm-11.345 20.754c-5.59 0-7.35-2.021-7.35-7.823 0-5.802 1.747-7.823 7.35-7.823 5.604 0 7.32 1.982 7.32 7.823 0 5.84-1.687 7.823-7.32 7.823zm-82.058-7.823c0 5.812 1.746 7.823 7.349 7.823 5.604 0 7.321-2.021 7.321-7.823 0-5.802-1.691-7.823-7.321-7.823s-7.35 1.982-7.35 7.823zm-9.846-.085c0-10.649 5.959-15.522 17.195-15.522 11.237 0 17.222 4.873 17.222 15.522 0 10.649-5.919 15.692-17.222 15.692-11.302 0-17.195-5.043-17.195-15.692zM56.305 35.292c1.072-1.35 5.397-4.61 10.717-4.61 8.856 0 13.74 4.74 13.74 15.507 0 10.765-4.89 15.55-13.77 15.55-5.35 0-9.645-3.2-10.746-4.579v14.23h-9.383V31.38h9.442v3.912zm.006 10.873c0 5.806 1.76 7.823 7.35 7.823v-.013c5.63 0 7.317-1.975 7.317-7.81 0-5.834-1.714-7.822-7.317-7.822s-7.35 2.017-7.35 7.822zm201.357-14.772v10.865h-12.457V31.393h-9.441v29.401h9.441V49.78h12.457v11.014h9.445v-29.4h-9.445zM210.126 61.74c-8.886 0-13.769-4.796-13.769-15.551 0-10.738 4.88-15.506 13.736-15.506 5.317 0 9.642 3.26 10.721 4.59V31.36h9.441v29.436h-9.386V57.16c-1.101 1.379-5.396 4.58-10.743 4.58zm3.331-23.417c-5.633 0-7.32 1.982-7.32 7.823-.004 5.812 1.72 7.823 7.32 7.823 5.601 0 7.346-1.988 7.346-7.823 0-5.834-1.712-7.823-7.346-7.823zM145.792 49.93c-.737 3.074-2.71 4.221-6.985 4.221-5.59 0-7.347-2.02-7.347-7.823 0-5.802 1.757-7.822 7.347-7.822 4.275 0 6.248 1.144 6.988 4.237l9.846-.74c-1.47-7.692-7.235-11.268-16.834-11.268-11.237 0-17.192 4.873-17.192 15.522 0 10.649 5.919 15.691 17.192 15.691 9.592 0 15.298-3.65 16.804-11.268l-9.819-.75zm146.34-4.576l14.943 15.437h-12.138l-13.016-13.536V60.79h-9.273V31.393h9.273v12.771l12.67-12.77h11.682l-14.141 13.96z" fill="#253256"/></svg>
